X: 15
T: Nenciozza mia
N: Derived from Jap3015-Nenciozza_mia.krn
C: Jean Japart
%%abc-version 2.0
%%abcx-abcm2ps-target-version 5.9.1 (29 Sep 2008)
%%abc-creator hum2abc beta
%%abcx-conversion-date 2019/02/16 20:40:05
%%abc-edited-by Jesse Rodin
%%abc-edited-by Chris Gage 09-18-2013
%%abcx-initial-encoding-date 2013/10/24/
%%humdrum-veritas 3789590705
%%humdrum-veritas-data 267581702
%%linebreak <none>
%%barnumbers 0
L: 1/4
M: 2/1
Q: 1/2=120
%%staves [1 2 3 4]
V: 1 clef=treble
V: 2 clef=treble-8
V: 3 clef=bass
V: 4 clef=bass
K: F
[V:1] F6E2 | 
[V:2] F4A4 | 
[V:3] z8 | 
[V:4] F,,8 | 
[V:1] D4C4 | 
[V:2] B4c4 | 
[V:3] z8 | 
[V:4] G,,4A,,4 | 
[V:1] D6C2 | 
[V:2] F2B4A2 | 
[V:3] F,4G,4- | 
[V:4] B,,4G,,4- | 
[V:1] B,2A,2G,4 | 
[V:2] G2c4=B2 | 
[V:3] G,2F,2E,2D,2 | 
[V:4] G,,8 | 
[V:1] z4C4- | 
[V:2] c6BA | 
[V:3] C,4C,2E,2- | 
[V:4] A,,2F,,2A,,3B,, | 
[V:1] C2C3A,D2- | 
[V:2] G4F4 | 
[V:3] E,2E,2F,4- | 
[V:4] C,4F,,2B,,2- | 
[V:1] DCC4=B,2 | 
[V:2] z4G4- | 
[V:3] F,2E,2D,4 | 
[V:4] B,,2C,2G,,4 | 
[V:1] C4F4 | 
[V:2] G2c3=B=BA | 
[V:3] C,4z4 | 
[V:4] C,4D,4 | 
[V:1] G4A4- | 
[V:2] c4A2c2- | 
[V:3] E,4F,4- | 
[V:4] C,4z2F,,2 | 
[V:1] A4B4 | 
[V:2] c4B2AG | 
[V:3] F,2E,2D,2C,B,, | 
[V:4] F,,4G,,4 | 
[V:1] c3BAGAB | 
[V:2] A3Bc2F2- | 
[V:3] A,,4A,,2D,2- | 
[V:4] F,,4z4 | 
[V:1] A2GFE4 | 
[V:2] FGABc4 | 
[V:3] D,2D,2C,4 | 
[V:4] F,4G,2A,2- | 
[V:1] z4G4 | 
[V:2] z4B4 | 
[V:3] A,,2B,,2G,,4 | 
[V:4] A,G,F,4E,2 | 
[V:1] A4F4 | 
[V:2] A4A2d2- | 
[V:3] F,,4z4 | 
[V:4] F,3E,D,C,B,,2- | 
[V:1] B4A2G2- | 
[V:2] d2d2c4 | 
[V:3] z8 | 
[V:4] B,,C,D,E,F,2C,2 | 
[V:1] GFF4E2 | 
[V:2] A2B2G4 | 
[V:3] z8 | 
[V:4] F,2B,,2C,4 | 
[V:1] F3ED2C2- | 
[V:2] F8- | 
[V:3] z8 | 
[V:4] D,3C,B,,2A,,2- | 
[V:1] CB,A,2B,4 | 
[V:2] F8- | 
[V:3] C,4D,4 | 
[V:4] A,,G,,F,,2B,,4 | 
[V:1] A,4z4 | 
[V:2] F4z4 | 
[V:3] C,4z4 | 
[V:4] F,,4z4 | 
[V:1] z8 | 
[V:2] c4B2A2- | 
[V:3] F,4D,2F,2 | 
[V:4] F,,4G,,2F,,2 | 
[V:1] z8 | 
[V:2] AGG3FF2- | 
[V:3] E,2C,4D,2 | 
[V:4] C,4A,,2B,,2 | 
[V:1] z8 | 
[V:2] F2E2F4 | 
[V:3] B,,4C,4 | 
[V:4] G,,4F,,4- | 
[V:1] z8 | 
[V:2] z8 | 
[V:3] D,6C,2- | 
[V:4] F,,2B,,4C,2 | 
[V:1] F4G4- | 
[V:2] z4B4 | 
[V:3] C,B,,A,,2G,,4 | 
[V:4] D,4B,,2_E,2- | 
[V:1] G2F2E2D2 | 
[V:2] c6B2 | 
[V:3] C,4z4 | 
[V:4] E,2D,2C,4 | 
[V:1] C4C2E2- | 
[V:2] A2G2F2G2 | 
[V:3] z2C,2F,,2C,2- | 
[V:4] z8 | 
[V:1] E2E2F4- | 
[V:2] C2c2A2d2- | 
[V:3] C,4D,2B,,2- | 
[V:4] z8 | 
[V:1] F2E2D4 | 
[V:2] dcc4=B2 | 
[V:3] B,,2C,2G,4 | 
[V:4] z4G,,4 | 
[V:1] C4z4 | 
[V:2] c4A4- | 
[V:3] C,4F,4- | 
[V:4] A,,4F,,3G,, | 
[V:1] C4F4- | 
[V:2] A4B4 | 
[V:3] F,2E,2D,2C,B,, | 
[V:4] A,,B,,C,2B,,2A,,G,, | 
[V:1] F2E2D2CB, | 
[V:2] c2A2B4 | 
[V:3] A,,2C,2B,,2A,,G,, | 
[V:4] F,,4G,,4 | 
[V:1] A,4A,2D2- | 
[V:2] c4F4 | 
[V:3] F,,2C,2D,3E, | 
[V:4] A,,4z4 | 
[V:1] D2D2C4 | 
[V:2] z8 | 
[V:3] F,2G,2E,2A,2- | 
[V:4] z8 | 
[V:1] A,2B,2G,4 | 
[V:2] z4c4 | 
[V:3] A,F,G,3D,E,2 | 
[V:4] z4C,4 | 
[V:1] F,4z4 | 
[V:2] A2d4c2 | 
[V:3] F,2B,,4C,2 | 
[V:4] F,6E,2 | 
[V:1] z8 | 
[V:2] B2AGF2c2- | 
[V:3] G,,4z4 | 
[V:4] D,2C,B,,A,,4 | 
[V:1] z4F4 | 
[V:2] cAB2A2GF | 
[V:3] z8 | 
[V:4] A,,2D,4D,2 | 
[V:1] G4A2F2 | 
[V:2] E2C4F2- | 
[V:3] z4F,4 | 
[V:4] C,4A,,2B,,2 | 
[V:1] B4A2c2- | 
[V:2] F2E2F3G | 
[V:3] G,4A,4 | 
[V:4] G,,4F,,4- | 
[V:1] c2B2G2A2- | 
[V:2] A2G4F2 | 
[V:3] F,2B,4A,2 | 
[V:4] F,,2G,,2E,,2F,,2- | 
[V:1] AGF4E2 | 
[V:2] C2c6 | 
[V:3] F,2A,2G,4 | 
[V:4] F,,4C,4 | 
[V:1] F8 |]  
[V:2] c8 |]  
[V:3] F,8 |]  
[V:4] F,,8 |]  



